packages/ffe-icons/icons/open/400/sm/signal_cellular_connected_no_internet_0_bar.svg

<svg xmlns="http://www.w3.org/2000/svg" height="20" viewBox="0 -960 960 960" width="20"><path d="m157-157 646-646q17-17 39-7.594 22 9.406 22 33.594v141q0 15.3-10.289 25.65-10.29 10.35-25.5 10.35Q813-600 802.5-610.35 792-620.7 792-636v-54L270-168h414q15.3 0 25.65 10.289 10.35 10.29 10.35 25.5Q720-117 709.65-106.5 699.3-96 684-96H183q-24.188 0-33.594-22Q140-140 157-157Zm671.211 61Q813-96 802.5-106.289q-10.5-10.29-10.5-25.5Q792-147 802.289-157.5q10.29-10.5 25.5-10.5Q843-168 853.5-157.711q10.5 10.29 10.5 25.5Q864-117 853.711-106.5q-10.29 10.5-25.5 10.5ZM792-275.96v-215.757Q792-507 802.289-517.5q10.29-10.5 25.5-10.5Q843-528 853.5-517.662 864-507.323 864-492.04v215.757Q864-261 853.711-250.5q-10.29 10.5-25.5 10.5Q813-240 802.5-250.338 792-260.677 792-275.96Z"/></svg>

<svg xmlns="http://www.w3.org/2000/svg" height="20" viewBox="0 -960 960 960" width="20"><path d="m157-157 646-646q17-17 39-7.59 22 9.4 22 33.59v141q0 15.3-10.29 25.65Q843.42-600 828.21-600t-25.71-10.35Q792-620.7 792-636v-54L270-168h414q15.3 0 25.65 10.29Q720-147.42 720-132.21t-10.35 25.71Q699.3-96 684-96H183q-24.19 0-33.59-22-9.41-22 7.59-39Zm671.21 61Q813-96 802.5-106.29t-10.5-25.5q0-15.21 10.29-25.71t25.5-10.5q15.21 0 25.71 10.29t10.5 25.5q0 15.21-10.29 25.71T828.21-96ZM792-275.96v-215.76q0-15.28 10.29-25.78 10.29-10.5 25.5-10.5t25.71 10.34q10.5 10.34 10.5 25.62v215.76q0 15.28-10.29 25.78-10.29 10.5-25.5 10.5t-25.71-10.34Q792-260.68 792-275.96Z"/></svg>
